images/icon-upper-half.svg

<svg width="445" height="290" viewBox="0 0 445 290" fill="none" xmlns="http://www.w3.org/2000/svg">
<path d="M273.676 192.54L207.983 230.465L187.968 218.9L80.8997 157.083C72.9121 152.474 66.4893 156.237 66.4893 165.462V289.039L6.03114 184.332C2.53879 178.287 0.789062 171.985 0.789062 166.7C0.789062 161.415 2.53879 157.133 6.03114 155.113L98.2762 101.853C104.151 98.4603 112.11 99.2499 120.418 104.051L219.285 161.138L236.455 171.053L273.676 192.54Z" fill="#F7F6FF" stroke="#0D0B33" stroke-width="1.42437" stroke-linejoin="round"/>
<path d="M443.67 94.3766L377.977 132.302L273.676 192.532L236.484 171.059L219.313 161.144L120.447 104.057C112.139 99.256 104.18 98.4664 98.3047 101.859L176.054 56.9637L268.299 3.70355C274.174 0.317889 282.133 1.10035 290.441 5.90144L443.67 94.3766Z" fill="#BFFFE4" stroke="#0D0B33" stroke-width="1.42437" stroke-linejoin="round"/>
</svg>

<svg xmlns="http://www.w3.org/2000/svg" width="445" height="290" fill="none"><path fill="#F7F6FF" stroke="#0D0B33" stroke-linejoin="round" stroke-width="1.424" d="m273.676 192.54-65.693 37.925-20.015-11.565L80.9 157.083c-7.988-4.609-14.41-.846-14.41 8.379v123.577L6.03 184.332C2.54 178.287.79 171.985.79 166.7c0-5.285 1.75-9.567 5.242-11.587l92.245-53.26c5.875-3.393 13.834-2.603 22.142 2.198l98.867 57.087 17.17 9.915 37.221 21.487Z"/><path fill="#BFFFE4" stroke="#0D0B33" stroke-linejoin="round" stroke-width="1.424" d="m443.67 94.377-65.693 37.925-104.301 60.23-37.192-21.473-17.171-9.915-98.866-57.087c-8.308-4.801-16.267-5.59-22.142-2.198l77.749-44.895 92.245-53.26C274.174.318 282.133 1.1 290.441 5.9L443.67 94.377Z"/></svg>
